X:5205
T:Polska i C efter Jonk Jonas
O:england
S:E\"O nr 588
R:Polska
Q:150
N:Polska i Haver\"ostil (kringpolska)
M:3/4
L:1/8
B:E \"Overg\aa{}rd nr 588
A:\"Overhogdal, H\"arjedalen
K:C
G2 c2 df | eg (3f(ed) ce |\
(3g(ag) (3f(ed) cc | d2 G4 |\
G2 c2 df | eg (3f(ed) ce | \
(3g(ag) (3f(ed) cc | {Bc}(3.B.A.B [E4c4] ::\
Ga ag gf | fe de fg |\
(3a(fa) (3g(eg) (3f(ed) |\
fe ca ag | (3g(eg) (3f(ed) cc|\
{Bc}(.B.A.B [E4c4]:|


